src/images/mobile-icon-1.svg

<svg height="34" viewBox="0 0 47 34" width="47" xmlns="http://www.w3.org/2000/svg"><g fill="none" fill-rule="evenodd" stroke="#eb9062" transform="translate(1 1)"><ellipse cx="7.807" cy="7.667" rx="3.214" ry="3.2"/><path d="m7.807 0v2.642m0 10.258v2.648m8.11-7.774h-2.653m-10.611 0h-2.653m13.327-5.603-1.877 1.87m-7.594 7.253-1.877 1.87m11.556 0-1.877-1.87m-7.802-7.517-1.876-1.87m25.103.264-1.688 6.507 5.148 4.486m-11.362-2.297 6.214-2.19m0 3.552v8.998m16.957-18.786-1.683 6.506 5.142 4.487m-11.355-2.297 6.213-2.19m0 3.552v8.997m-38.016 4.324s2.69.796 5.539-2.297c0 0 5.148 5.02 9.849 0 0 0 4.789 5.302 9.937 0 0 0 4.367 5.647 9.59 0 0 0 1.608 2.51 5.672 2.51m-40.587 5.44s2.69.797 5.539-2.297c0 0 5.148 5.02 9.849 0 0 0 4.789 5.302 9.937 0 0 0 4.367 5.648 9.59 0 0 0 1.608 2.51 5.672 2.51" stroke-linecap="round" stroke-linejoin="round"/></g></svg>

<svg xmlns="http://www.w3.org/2000/svg" width="47" height="34" viewBox="0 0 47 34">
    <g fill="none" fill-rule="evenodd" stroke="#EB9062" transform="translate(1 1)">
        <ellipse cx="7.807" cy="7.667" rx="3.214" ry="3.2"/>
        <path stroke-linecap="round" stroke-linejoin="round" d="M7.807 0v2.642M7.807 12.9v2.648M15.917 7.774h-2.653M2.653 7.774H0M13.327 2.171l-1.877 1.87M3.856 11.294l-1.877 1.87M13.535 13.164l-1.877-1.87M3.856 3.777L1.98 1.907M27.083 2.171L25.395 8.678 30.543 13.164M19.181 10.867l6.214-2.19M25.395 12.229v8.998M42.352 2.441L40.669 8.947 45.811 13.434M34.456 11.137l6.213-2.19M40.669 12.499v8.997M2.653 25.82s2.69.796 5.539-2.297c0 0 5.148 5.02 9.849 0 0 0 4.789 5.302 9.937 0 0 0 4.367 5.647 9.59 0 0 0 1.608 2.51 5.672 2.51M2.653 31.473s2.69.797 5.539-2.297c0 0 5.148 5.02 9.849 0 0 0 4.789 5.302 9.937 0 0 0 4.367 5.648 9.59 0 0 0 1.608 2.51 5.672 2.51"/>
    </g>
</svg>
